!!!!SEGMENT: pl-sa--203-a-vi-7--002_ruth-christian-joseph--sub-tuum-praesidium.krn
!!!cenid: 17xx:546
!!!COM: Ruth, Christian Joseph
!!!COM-rismID: pe41010076
!!!CDT:
!!!CNT:
!!!OTL: Sub tuum praesidium
!!!PDT:
!!!AGN: Sacred
!!!SMS-siglum: PL-SA
!!!SMS-shelfmark: 203/A VI 7
!!!SMS-shelfwork: 002 W
!!!SMS-variant:
!!!SMS-altvar:
!!!NIFC-rismSourceID: 1001067770
!!!NIFC-islandoraID:
!!!URL-pdf-islandora:
!!!URL-scan: https://bc.bdsandomierz.pl/dlibra/publication/1559/edition/1527/content @EN{Scan in the Sandomierz Diocese Digital Library} @PL{Skany w portalu Cyfrowa Biblioteka Diecezjalna w Sandomierzu}
!!!ONB-nifc:
!!!AIN: 1 empty 1 viola 2 violn 1 vox
!!!key:
**kern	**fba	**kern	**kern	**kern	**kern	**text
*part5	*part5	*part4	*part3	*part2	*part1	*part1
*staff5	*staff5	*staff4	*staff3	*staff2	*staff1	*staff1
*Iempty	*	*Iviola	*Ivioln	*Ivioln	*Ivox	*
*I"Fundamento Generali	*	*I"Alto Viola	*I"Violino Secundo	*I"Violino Primo	*I"Canto Solo	*
*I'bc	*	*I'a-vla	*I'vl 2	*I'vl 1	*I'C solo	*
*clefF4	*	*clefC3	*clefG2	*clefG2	*clefC1	*
*k[f#c#g#]	*	*k[f#c#g#]	*k[f#c#g#]	*k[f#c#g#]	*k[f#c#g#]	*
*A:	*	*A:	*A:	*A:	*A:	*
*M3/4	*	*M3/4	*M3/4	*M3/4	*M3/4	*
*>[A,B,A]	*	*>[A,B,A]	*>[A,B,A]	*>[A,B,A]	*>[A,B,A]	*
=1	=1	=1	=1	=1	=1	=1
*>A	*	*>A	*>A	*>A	*>A	*
*	*	*2\right	*2\right	*2\right	*2\right	*
!	!	!	!	!	!LO:SIC:s=Aria 2.:v:t=w źródle napis ten znajduje się po lewej stronie przed kluczem i oznaczeniem metrum	!
!	!	!	!	!LO:SIC:s=Aria 2.:v:t=w źródle napis ten znajduje się po lewej stronie przed kluczem i oznaczeniem metrum	!	!
!	!	!	!LO:SIC:s=Aria 2.:v:t=w źródle napis ten znajduje się po lewej stronie przed kluczem i oznaczeniem metrum	!	!	!
!	!	!LO:SIC:s=Aria 2.:v:t=w źródle napis ten znajduje się po lewej stronie przed kluczem i oznaczeniem metrum	!	!	!	!
!LO:SIC:s=Aria 2.:v:t=w źródle napis ten znajduje się nad kluczem i oznaczeniem metrum	!	!	!	!	!	!
!	!	!	!	!	!LO:N:vis=00	!
8A\L	.	8e\L	8a\	8a\	0.r	.
8A\	.	8e\	4cc#\	4cc#\	.	.
8A\	.	8c#\	.	.	.	.
8A\	.	8c#\	4ee\	8ee\	.	.
8A\	.	8c#\	.	8ee\L	.	.
8A\J	.	8c#\J	8aa\	8aa\J	.	.
=2	=2	=2	=2	=2	=2	=2
.	.	.	8qqaa/	8qqaa/	.	.
8E\L	.	8B/L	8gg#\L	8gg#\L	.	.
8E\	.	8B/	8ff#\J	8ff#\J	.	.
8C#\	.	8A/	4.ee\	4.ee\	.	.
8C#\	.	8A/	.	.	.	.
8C#\	.	8A/	.	.	.	.
8C#\J	.	8A/J	8a/	8a/	.	.
=3	=3	=3	=3	=3	=3	=3
8D\L	.	8A/L	8ff#\	8ff#\	.	.
8D\	.	8A/	4ff#\	4ff#\	.	.
8D\	.	8A/	.	.	.	.
8D\	.	8A/	8aa\L	8aa\L	.	.
8D\	.	8A/	8gg#\	8gg#\	.	.
8D\J	.	8A/J	8ff#\J	8ff#\J	.	.
=4	=4	=4	=4	=4	=4	=4
*	*^	*	*	*	*	*
.	.	.	.	8qqff#/	8qqff#/	.	.
8C#/L	.	.	8A/L	8ee\	8ee\	.	.
8C#/	7	.	8A/	4a/	4a/	.	.
8BB/	.	.	8A/	.	.	.	.
8BB/	.	.	8A/	(>8dd\L	(>8dd\L	.	.
8E/	4	3	8G#/	8cc#\)	8cc#\	.	.
8E/J	.	.	8G#/J	8b\J	8b\J)	.	.
*	*v	*v	*	*	*	*	*
=5	=5	=5	=5	=5	=5	=5
!	!	!	!	!	!LO:N:vis=00	!
8A\	.	8e\	8.cc#\L	8.cc#\L	0.r	.
8r	.	8r	.	.	.	.
.	.	.	16a\K	16a\K	.	.
8C#/	.	8A/	8.ee\	8.ee\	.	.
8r	.	8r	.	.	.	.
.	.	.	16a\K	16a\K	.	.
8D/	.	8A/	8.ff#\	8.ff#\	.	.
8r	.	8r	.	.	.	.
.	.	.	16a\Jk	16a\Jk	.	.
!	!	!	!LO:LB:g=original	!	!	!
=6	=6	=6	=6	=6	=6	=6
.	.	.	8qqa/	8qqa/	.	.
8E\L	.	8r	8g#/L	8g#/L	.	.
8E\	.	8g#\L	8e/	8e/	.	.
8E\	.	8g#\	8g#/	8g#/	.	.
8E\	7	8g#\J	8b/J	8b/J	.	.
!	!	!LO:LB:g=original	!	!	!	!
8E\	.	8b\L	8dd\L	8dd\L	.	.
8E\J	.	16a\L	16cc#\L	16cc#\L	.	.
.	.	16g#\JJ	16b\JJ	16b\JJ	.	.
=7	=7	=7	=7	=7	=7	=7
8A\L	.	8a\L	8cc#\L	8cc#\L	.	.
!	!	!LO:TX:a:i:t=e	!	!	!	!
8A\	.	8e\	16b\L	16b\L	.	.
.	.	.	16a\JJ	16a\JJ	.	.
8F#\	6\	8a\	2dd#Xm>\	2dd#X\	.	.
8F#\	.	8a\	.	.	.	.
8F#\	.	8a\	.	.	.	.
8F#\J	.	8a\J	.	.	.	.
!LO:LB:g=original	!	!	!	!	!	!
=8	=8	=8	=8	=8	=8	=8
!	!	!	!LO:SIC:s=8qdd#:v	!LO:SIC:s=8qdd#:v	!	!
.	.	.	8qqdd/	8qqdd/	.	.
8G#\L	6	8b\L	4.ee\	4.ee\	.	.
8E`>\	.	8g#\	.	.	.	.
8E`>\	.	8e\	.	.	.	.
8E`>\	.	8f#\	8aa\L	8aa\L	.	.
8E`>\	.	8e\	8gg#\	8gg#\	.	.
8E`>\J	.	8d\J	8ff#\J	8ff#\J	.	.
!	!	!	!	!LO:LB:g=original	!	!
=9	=9	=9	=9	=9	=9	=9
!	!	!	!	!	!LO:N:vis=00	!
8E`>\L	.	8c#\L	4.ee\	4.ee\	0.r	.
8E`>\	.	8c#\	.	.	.	.
8E`>\	.	8c#\	.	.	.	.
8E`>\	.	8d\	8ff#\L	8ff#\L	.	.
8E`>\	.	8c#\	8ee\	8ee\	.	.
8E`>\J	.	8B\J	8dd\J	8dd\J	.	.
=10	=10	=10	=10	=10	=10	=10
*	*	*	*Xtuplet	*Xtuplet	*	*
8A\L	3	8e\L	24cc#\LL	12cc#\L	.	.
.	.	.	24b\	.	.	.
.	.	.	24a\JJ	12b\	.	.
8A\	.	8e\	16dd\LL	.	.	.
.	.	.	.	12a\J	.	.
.	.	.	16b\JJ	.	.	.
.	.	.	.	8qqa/	.	.
8E\	.	8d\	4.b\	4.g#/	.	.
8E\	.	8d\	.	.	.	.
8E\	.	8e\	.	.	.	.
8E\J	.	8e\J	8cc#\	8a/	.	.
=11	=11	=11	=11	=11	=11	=11
4AA/	.	8c#\	8a/	[>2.a/	.	.
.	.	4c#\	4e/	.	.	.
4r	.	.	.	.	.	.
.	.	4d\	4f#/	.	.	.
4r	.	.	.	.	.	.
.	.	8c#\	8e/	.	.	.
=12	=12	=12	=12	=12	=12	=12
4AA/	.	8r	8r	2.a/]	.	.
.	.	4c#\	4e/	.	.	.
4r	.	.	.	.	.	.
.	.	4d\	4f#/	.	.	.
4r	.	.	.	.	.	.
.	.	8c#\	8e/	.	.	.
=13	=13	=13	=13	=13	=13	=13
!	!	!	!	!	!LO:N:vis=0	!
4B\	-n	4f#\	4dd\	4dd\	1.r	.
.	.	.	8qqee/	8qqee/	.	.
4A\	.	4e\	4cc#\	4cc#\	.	.
.	.	.	8qqdd/	8qqdd/	.	.
4G#\	6	4e\	4b\	4b\	.	.
.	.	.	8qqcc#/	8qqcc#/	.	.
!	!	!	!LO:LB:g=original	!	!	!
=14	=14	=14	=14	=14	=14	=14
8A\L	.	8e\L	24cc#\LL	24cc#\LL	.	.
.	.	.	24b\	24b\	.	.
.	.	.	24a\JJ	24a\JJ	.	.
!	!	!	!	!LO:TX:a:t=P:problem=mixed beam	!	!
8A\	.	8e\	16aa\LL	16aa\LL	.	.
.	.	.	16a\JJ	16a/JJ	.	.
8E\	.	8d\	4.a/	4.cc#m>\	.	.
8E\	.	8d\	.	.	.	.
8E\	.	8e\	.	.	.	.
8E\J	.	8e\J	8g#/	8b\	.	.
=15	=15	=15	=15	=15	=15	=15
!	!	!LO:TX:a:t=P:problem=mixed beam	!	!	!	!
4AA/	.	8A/L	8a\L	8a\L	8a\	ſub
.	.	8a\	8cc#\	8ee\	4cc#\	tu-
4r	.	8a\	8cc#\	8ee\	.	.
.	.	8a\	8cc#\	8ee\	8ee\	-um
!	!	!	!	!	!LO:SIC:s=prae:v	!
4r	.	8a\	8cc#\	8ee\	8ee\	pra-
.	.	8a\J	8cc#\J	8ee\J	8aa\	-ſi-
=16	=16	=16	=16	=16	=16	=16
!LO:N:vis=00	!	!	!	!	!	!
0.r	.	8e\L	8b\L	8r	8.gg#X\L	-di-
.	.	8g#\	8b\	8ee\L	.	.
.	.	.	.	.	16ff#\Jk	.
.	.	8g#\	8b\	8ee\	4.ee\	-um
.	.	8g#\	8b\	8ee\	.	.
.	.	8g#\	8b\	8ee\	.	.
.	.	8g#\J	8b\J	8ee\J	8e/	con-
!	!	!LO:LB:g=original	!	!	!	!
=17	=17	=17	=17	=17	=17	=17
.	.	8f#\L	8r	8r	8dd\	-fu-
.	.	8f#\	8a\L	8dd\L	4dd\	.
.	.	8f#\	8a\	8dd\	.	.
.	.	8f#\	8a\	8dd\	8ff#\L	.
.	.	8g#\	8b\	8dd\	8ee\	.
.	.	8g#\J	8b\J	8dd\J	8dd\J	.
=18	=18	=18	=18	=18	=18	=18
*	*	*	*	*	*Xtuplet	*
.	.	8a\L	8e/L	8r	12cc#\L	.
.	.	.	.	.	12b\	.
.	.	8a\	8e/	8cc#\L	.	.
.	.	.	.	.	12a\J	.
.	.	8f#\	8a/	8ff#\	2dd#X\	.
.	.	8f#\	8a/	8ff#\	.	.
.	.	8d#X\	8b/	8ff#\	.	.
.	.	8d#\J	8b/J	8ff#\J	.	.
=19	=19	=19	=19	=19	=19	=19
.	.	8e\L	8g#/L	8r	4.ee\	.
.	.	8e\	8g#/	8ee\L	.	.
.	.	8e\	8g#/	8ee\	.	.
.	.	8e\	8dd/	8ff#\	8ff#\L	.
.	.	8e\	8cc#/	8ee\	8ee\	.
.	.	8e\J	8b/J	8dd\J	8dd\J	.
!	!	!	!	!LO:LB:g=original	!LO:LB:g=original	!
=20	=20	=20	=20	=20	=20	=20
2.r	.	8e\L	8a/L	8.cc#\L	8.cc#\L	.
.	.	8e\	8a/	.	.	.
.	.	.	.	32dd\LL	32dd\LL	.
.	.	.	.	32ee\JJJ	32ee\JJJ	.
.	.	8e\	8b/	8dd\L	4dd\	.
.	.	8e\	8b/	8dd\	.	.
.	.	8e\	8a/	8cc#\	8cc#\	.
.	.	8e\J	8a/J	8cc#\J	8cc#\	-gi-
!LO:LB:g=original	!	!	!	!	!	!
=21	=21	=21	=21	=21	=21	=21
8r	.	8e\L	8a/L	12cc#\L	(4cc#\	-mus
.	.	.	.	12dd\	.	.
8AA/L	.	8e\	8a/	.	.	.
.	.	.	.	12ee\J	.	.
8E/	.	8B\	8g#/	8b\	4b\)	.
8E/	.	8B\	8g#/	4ee\	.	.
8E/	.	8B\	8g#/	.	4r	.
8E/J	.	8B\J	8g#/J	8b\	.	.
=22	=22	=22	=22	=22	=22	=22
!	!	!	!	!	!LO:N:vis=00	!
8E\L	.	8c#\L	8a\	8cc#\	0.r	.
8E\	6 4	8c#\	4cc#\	4a/	.	.
8E\	.	8e\	.	.	.	.
8E\	.	8e\	4ee\	8cc#\L	.	.
8E\	.	8c#\	.	8cc#\J	.	.
8E\J	.	8c#\J	8cc#\	8ee\	.	.
!	!	!	!LO:LB:g=original	!	!	!
=23	=23	=23	=23	=23	=23	=23
!	!	!LO:TX:a:t=P:problem=mixed beam	!	!	!	!
8E\L	#n	8B/L	8g#/	8b/L	.	.
8E\	.	8B/	4e/	16e/L	.	.
.	.	.	.	16f#/JJ	.	.
8E\	.	8G#/	.	16g#/LL	.	.
.	.	.	.	16a/	.	.
8E\	.	8G#/	16g#/LL	16b/	.	.
.	.	.	16a/JJ	16cc#/JJ	.	.
8G#\	.	8e\	8b/L	8dd\L	.	.
8G#\J	.	8e\J	8g#/J	8b\J	.	.
=24	=24	=24	=24	=24	=24	=24
8A\L	.	8e\L	8a/L	12cc#\L	.	.
.	.	.	.	12b\	.	.
8A\	.	8e\	8a/	.	.	.
.	.	.	.	12a\J	.	.
8E\	5 4	8e\	8a/	4.bM>\	.	.
8E\	.	8e\	8a/	.	.	.
8E\	.	8d\	8g#/	.	.	.
!	!	!	!	!LO:SIC:s=8b:v	!	!
8E\J	.	8d\J	8g#/J	8a\	.	.
=25	=25	=25	=25	=25	=25	=25
4AA/	.	8c#\	8a/	[>2.aM>/	.	.
.	.	4c#\	4e/	.	.	.
4r	.	.	.	.	.	.
.	.	4d\	4f#/	.	.	.
4r	.	.	.	.	.	.
.	.	8c#\	8e/	.	.	.
=26	=26	=26	=26	=26	=26	=26
!	!	!	!	!	!LO:N:vis=0	!
4AA/	.	8r	8r	2.aM>/]	1.r	.
.	.	4c#\	4e/	.	.	.
4r	.	.	.	.	.	.
.	.	4d\	4f#/	.	.	.
4r	.	.	.	.	.	.
.	.	8c#\	8e/	.	.	.
!	!	!LO:LB:g=original	!	!	!	!
=27	=27	=27	=27	=27	=27	=27
4B\	.	4f#\	4dd\	4dd\	.	.
.	.	.	8qqee/	8qqee/	.	.
4A\	.	4e\	4cc#\	4cc#\	.	.
.	.	.	8qqdd/	8qqdd/	.	.
4G#\	.	4e\	4b\	4b\	.	.
.	.	.	8qqcc#/	8qqcc#/	.	.
=28	=28	=28	=28	=28	=28	=28
8A\L	.	8e\L	24cc#\LL	24cc#\LL	2.r	.
.	.	.	24b\	24b\	.	.
.	.	.	24a\JJ	24a\JJ	.	.
!	!	!	!LO:TX:a:t=P:problem=mixed beam	!LO:TX:a:t=P:problem=mixed beam	!	!
8E\	.	8e\	16aa\LL	16aa\LL	.	.
.	.	.	16a/JJ	16a/JJ	.	.
8E\	.	8a\	4.bM>/	4.bM>/	.	.
8E\	.	8a\	.	.	.	.
8E\	.	8g#\	.	.	.	.
!	!	!	!LO:SIC:s=8b:v	!LO:SIC:s=8b:v	!	!
8E\J	.	8g#\J	8a/	8a/	.	.
!	!	!	!	!LO:LB:g=original	!	!
=29	=29	=29	=29	=29	=29	=29
4AA/	.	8a\L	8a\L	8a\L	8a\	ſub
.	.	8a\	8cc#\	8ee\	4cc#\	tu-
4r	.	8a\	8cc#\	8ee\	.	.
.	.	8a\	8cc#\	8ee\	8ee\	-um
!	!	!	!	!	!LO:SIC:s=prae:v	!
4r	.	8a\	8cc#\	8ee\	8ee\	pra-
.	.	8a\J	8cc#\J	8ee\J	8aa\	-ſi-
=30	=30	=30	=30	=30	=30	=30
!LO:N:vis=00	!	!	!	!	!	!
0.r	.	8e\L	8r	8r	8.gg#\L	-di-
.	.	8g#\	8b\L	8ee\L	.	.
.	.	.	.	.	16ff#\Jk	.
.	.	8g#\	8b\	8ee\	4.ee\	.
.	.	8g#\	8b\	8ee\	.	.
.	.	8g#\	8b\	8ee\	.	.
.	.	8g#\J	8b\J	8ee\J	8e/	-um
!	!	!	!LO:LB:g=original	!	!	!
=31	=31	=31	=31	=31	=31	=31
.	.	8f#\L	8r	8r	8dd\	con-
.	.	8f#\	8a\L	8dd\L	4dd\	-fu-
!	!	!LO:SIC:s=8f#:v	!	!	!	!
.	.	8g#\	8a\	8dd\	.	.
!	!	!LO:SIC:s=8f#:v	!	!	!	!
.	.	8g#\	8a\	8dd\	8ff#\L	.
.	.	8g#\	8b\	8dd\	8ee\	.
.	.	8g#\J	8b\J	8dd\J	8dd\J	.
=32	=32	=32	=32	=32	=32	=32
.	.	8a\L	8e/L	8r	12cc#\L	.
.	.	.	.	.	12b\	.
.	.	8a\	8e/	8cc#\L	.	.
.	.	.	.	.	12a\J	.
.	.	8f#\	8a/	8ff#\	2dd#X\	.
.	.	8f#\	8a/	8ff#\	.	.
.	.	8d#X\	8b/	8ff#\	.	.
.	.	8d#\J	8b/J	8ff#\J	.	.
=33	=33	=33	=33	=33	=33	=33
.	.	8e\L	8g#/L	8r	4.ee\	.
.	.	8e\	8g#/	8ee\L	.	.
.	.	8e\	8g#/	8ee\	.	.
.	.	8e\	8dd/	8ff#\	8ff#\L	.
.	.	8e\	8cc#/	8ee\	8ee\	.
.	.	8e\J	8b/J	8dd\J	8dd\J	.
!	!	!	!	!	!LO:LB:g=original	!
=34	=34	=34	=34	=34	=34	=34
!LO:N:vis=00	!	!	!	!	!	!
0.r	.	8e\L	8a/L	8.cc#\L	8.cc#\L	.
.	.	8e\	8a/	.	.	.
.	.	.	.	32dd\LL	32dd\LL	.
.	.	.	.	32ee\JJJ	32ee\JJJ	.
.	.	8e\	8b/	8dd\L	4dd\	.
.	.	8e\	8b/	8dd\	.	.
.	.	8e\	8a/	8cc#\	8cc#\	.
.	.	8e\J	8a/J	8cc#\J	8cc#\	-gi-
=35	=35	=35	=35	=35	=35	=35
.	.	8e\L	8a/L	8cc#\L	(>4cc#\	-mus
.	.	8e\	8a/	8cc#\	.	.
.	.	8e\	8g#/	8b\	4b\)	.
.	.	8e\	8g#/	8b\	.	.
!	!	!	!	!	!LO:SIC:s=ſan-:v	!
.	.	8e\	8g#/	8b\	8ee\L	ſa-
.	.	8e\J	8g#/J	8b\J	8dd\J	.
=36	=36	=36	=36	=36	=36	=36
.	.	8a\L	8e/L	8cc#\L	(>16cc#\LL	.
.	.	.	.	.	16dd\J)	.
.	.	8a\	8cc#/	8ee\	8ee\J	.
.	.	8a\	8cc#/	8ee\	8ee\L	.
.	.	8a\	8cc#/	8ee\	24ee\L	.
.	.	.	.	.	(>24dd\	.
.	.	.	.	.	24cc#\JJ)	.
.	.	8a\	8cc#/	8ee\	8ggn\L	.
.	.	8a\J	8cc#/J	8ee\J	(>24gg\L	.
.	.	.	.	.	24ff#\	.
.	.	.	.	.	24ee\JJ)	.
!	!	!LO:LB:g=original	!	!	!	!
=37	=37	=37	=37	=37	=37	=37
.	.	8d\L	8r	8r	32ff#\LLL	.
.	.	.	.	.	32ee\JJ	.
.	.	.	.	.	8.dd\J	.
.	.	8d\	8a/L	8ff#\L	.	.
.	.	8f#\	8a/	8dd\	32dd\LLL	.
.	.	.	.	.	32cc#\JJ	.
.	.	.	.	.	8.b\J	.
.	.	8f#\	8a/J	8dd\J	.	.
.	.	8e\	8r	8r	32b\LLL	.
.	.	.	.	.	32a\JJ	.
.	.	.	.	.	8.g#\J	.
.	.	8e\J	8b\	8dd\	.	.
!LO:LB:g=original	!	!	!	!	!	!
=38	=38	=38	=38	=38	=38	=38
!LO:N:vis=00	!	!	!	!	!	!
0.r	.	8a\L	8cc#\	8ee\	16a\LL	.
.	.	.	.	.	16b\J	.
.	.	8a\	4cc#\	4ee\	8cc#\J	.
.	.	8cc#\	.	.	16cc#\LL	.
.	.	.	.	.	16dd\J	.
.	.	8cc#\	4ee\	4aa\	8ee\J	.
.	.	8a\	.	.	16ee\LL	.
.	.	.	.	.	16dd\J	.
.	.	8a\J	8cc#\	8ee\	8cc#\J	.
!	!	!	!LO:LB:g=original	!LO:LB:g=original	!	!
=39	=39	=39	=39	=39	=39	=39
!	!	!	!	!	!LO:SIC:s=-cta:v	!
.	.	8f#\L	8a/L	8ff#\L	2.dd\	-ta
.	.	8f#\	8a/	8dd\	.	.
.	.	8b\	8f#/	8dd\	.	.
.	.	8b\	8f#/	8ff#\	.	.
.	.	8g#\	8b/	8dd\	.	.
.	.	8g#\J	8b/J	8dd\J	.	.
=40	=40	=40	=40	=40	=40	=40
.	.	8e\L	8r	8r	4.dd\	de-
.	.	8e\	8g#/L	8b\L	.	.
.	.	8g#\	8e/	8b\	.	.
.	.	8g#\	8e/	8b\	8ff#\L	-i
.	.	8g#\	8b/	8dd\	8ee\	.
.	.	8g#\J	8b/J	8dd\J	8dd\J	.
!	!	!	!	!	!LO:LB:g=original	!
=41	=41	=41	=41	=41	=41	=41
.	.	8a\L	8e/	16cc#\LL	8cc#\	ge-
.	.	.	.	16b\J	.	.
.	.	8a\	4cc#\	8a\J	4ee\	.
.	.	8a\	.	4.ee\	.	.
.	.	8a\	4b\	.	4dd\	.
.	.	8a\	.	.	.	.
.	.	8a\J	8ee\	8aa\	8cc#\	.
=42	=42	=42	=42	=42	=42	=42
!LO:N:vis=00	!	!	!	!	!	!
!	!	!	!	!LO:TX:a:t=P:problem=mixed beam	!	!
0.r	.	8e\L	8b/L	8gg#\L	16b\LL	.
.	.	.	.	.	16a\J	.
.	.	8e\	8g#/	8e/	8g#\J	.
.	.	8e\	8g#/	8g#/	16g#/LL	.
.	.	.	.	.	16f#/J	.
.	.	8e\	8g#/J	8b/J	8e/J	.
.	.	8e\	8b/L	8dd\L	8dd\	.
.	.	8e\J	16a/L	16cc#\L	16cc#\	.
.	.	.	16g#/JJ	16b\JJ	16b\	-ni-
=43	=43	=43	=43	=43	=43	=43
.	.	8A/L	(<8e/	8cc#\	4cc#\	-trix
.	.	8A/	4c#/	(>4a/	.	.
.	.	8A/	.	.	4ee\	no-
.	.	8A/	4e/)	4cc#\)	.	.
.	.	8A/	.	.	4ee\	-ſtras
.	.	8A/J	16d/LL	16b\LL	.	.
.	.	.	16c#/JJ	16a\JJ	.	.
=44	=44	=44	=44	=44	=44	=44
!	!	!	!	!	!LO:SIC:s=no-ſtras:v:t=tekst powinien być powtórzony	!
.	.	8e\L	8d/	8b/	2ee\	.
.	.	8e\	4B/	(<4g#/	.	.
.	.	8e\	.	.	.	.
.	.	8e\	4d/	4b/	.	.
.	.	8e\	.	.	4ee\	.
.	.	8e\J	16c#/LL	16a/LL)	.	.
.	.	.	16B/JJ	16g#/JJ	.	.
=45	=45	=45	=45	=45	=45	=45
!	!	!	!LO:TX:a:t=P:problem=mixed beam	!	!	!
.	.	8a\L	8c#/L	8a\L	(>4aa\	de-
.	.	8a\	8cc#\	8ee\	.	.
.	.	8a\	8cc#\	8ee\	4ee\	-pre-
.	.	8a\	8cc#\	8ee\	.	.
.	.	8a\	8dd\	8ff#\	4ff#\)	.
.	.	8a\J	8dd\J	8ff#\J	.	.
=46	=46	=46	=46	=46	=46	=46
!LO:N:vis=00	!	!	!	!	!	!
0.r	.	8a\L	8cc#\L	8ee\L	8ee\L	-ca-
.	.	8a\	8cc#\	8ff#\	8ff#\J	.
.	.	.	.	.	8qqee/	.
!	!	!	!	!	!LO:SIC:s=4.ee:v	!
.	.	8e\	8cc#\	8ee\	4.dd\	-ti-
.	.	8e\	8cc#\	8ee\	.	.
.	.	8e\	8b\	8dd\	.	.
.	.	8e\J	8b\J	8dd\J	8dd\	-o-
!	!	!LO:LB:g=original	!LO:LB:g=original	!	!	!
=47	=47	=47	=47	=47	=47	=47
.	.	8a\L	8cc#\L	8cc#\L	4cc#\	-nes
.	.	8a\	8cc#\	8aa\	.	.
.	.	8a\	8cc#\	8ee\	4r	.
.	.	8a\	8cc#\	8ee\	.	.
.	.	8a\	8dd\	8ff#\	4r	.
.	.	8a\J	8dd\J	8ff#\J	.	.
!	!	!	!	!LO:LB:g=original	!	!
=48	=48	=48	=48	=48	=48	=48
.	.	8a\L	(>8cc#\L	(>8ee\L	2.r	.
.	.	8a\	8dd\	8ff#\	.	.
.	.	8e\	8cc#\	8ee\	.	.
.	.	8e\	8b\	8dd\)	.	.
.	.	8e\	8a\)	8cc#\	.	.
.	.	8e\J	8g#\J	8b\J	.	.
!	!	!	!	!	!LO:LB:g=original	!
=49	=49	=49	=49	=49	=49	=49
.	.	8A/L	8a/L	8cc#\L	4.e/	ne
.	.	8A/	8e/	8cc#\	.	.
.	.	8A/	8cc#/	8ee\	.	.
.	.	8A/	8cc#/	8ee\	8e/	de-
.	.	8A/	8a/	8cc#\	8e/	-ſpi-
.	.	8A/J	8a/J	8cc#\J	8e/	ci-
=50	=50	=50	=50	=50	=50	=50
!LO:N:vis=00	!	!	!	!	!	!
!	!	!LO:TX:a:t=P:problem=mixed beam	!	!	!	!
0.r	.	8B/L	8g#/L	8b\L	2.dd\	-as
.	.	8B/	8g#/	8b\	.	.
.	.	8g#\	8b/	8dd\	.	.
.	.	8g#\	8b/	8dd\	.	.
.	.	8e\	8g#/	8b\	.	.
.	.	8e\J	8g#/J	8b\J	.	.
=51	=51	=51	=51	=51	=51	=51
.	.	8a\L	8a/L	8cc#\L	4e/	in
.	.	8a\	8a/	8cc#\	.	.
.	.	8b\	8a/	8ff#\	4dd\	ne-
.	.	8b\	8a/	8ff#\	.	.
.	.	8e\	8a/	8ee\	(>8cc#\L	-ceſ-
.	.	8e\J	8g#/J	8dd\J	8b\J)	.
=52	=52	=52	=52	=52	=52	=52
.	.	8a\L	8e/L	8cc#\L	4cc#\	-si-
.	.	8a\	8e/	8cc#\	.	.
.	.	8a\	8a/	8cc#\	4ff#\	-ti-
.	.	8a\	8a/	8cc#\	.	.
!	!	!	!	!	!LO:SIC:s=4ff#:v	!
.	.	8a\	8cc#/	8ff#\	4ee\	.
.	.	8a\J	8cc#/J	8ff#\J	.	.
=53	=53	=53	=53	=53	=53	=53
.	.	8b\L	8dd#X\L	8ff#\L	2dd#X\	-bus
.	.	8b\	8dd#\	8ff#\	.	.
.	.	8b\	8b\	8dd#X\	.	.
.	.	8b\	8b\	8dd#\	.	.
.	.	8g#\	8e\	8b\	4ee\	ſed
.	.	8g#\J	8e\J	8b\J	.	.
=54	=54	=54	=54	=54	=54	=54
!LO:N:vis=00	!	!	!	!	!	!
0.r	.	8e\L	8f#/L	8a/L	4.b\	a
.	.	8e\	8f#/	8a/	.	.
.	.	8e\	8f#/	8a/	.	.
.	.	8e\	8f#/	8a/	8cc#\L	pe-
.	.	8d#X\	8f#/	8b/	(8b\	.
.	.	8d#\J	8f#/J	8b/J	8a\J)	.
!	!	!	!LO:LB:g=original	!	!	!
=55	=55	=55	=55	=55	=55	=55
.	.	8e\L	8r	8r	4.g#/	-ri-
.	.	8e\	8g#/L	8b\L	.	.
.	.	8e\	8g#/	8b\	.	.
.	.	8e\	8g#/	8b\	8f#/	-cu-
.	.	8e\	8g#/	8b\	4e/	-lis
.	.	8e\J	8g#/J	8b\J	.	.
=56	=56	=56	=56	=56	=56	=56
.	.	8d#X\L	8f#/L	8b\L	(>8b\	cun-
.	.	8e\	8g#/	8b\	8ee\)	.
.	.	8e\	8g#/	8b\	(>4b\	-ctis
.	.	8e\	8g#/	8b\	.	.
!	!	!	!	!	!LO:TX:a:t=P:problem=w źródle błędne podłożenie tekstu	!
.	.	8e\	8a/	8cc#\	4cc#\)	li-
.	.	8e\J	8a/J	8cc#\J	.	.
!	!	!LO:LB:g=original	!	!	!	!
=57	=57	=57	=57	=57	=57	=57
.	.	8e\L	8b/L	8ee\L	4g#\	-be-
.	.	8e\	8b/	8ee\	.	.
.	.	8e\	8b/	8ee\	4g#\	-ra
.	.	8e\	8b/	8ee\	.	.
.	.	8c#\	8a/	8ee\	4a\	nos
.	.	8c#\J	8a/J	8ee\J	.	.
!	!	!	!	!LO:LB:g=original	!LO:LB:g=original	!
=58	=58	=58	=58	=58	=58	=58
!LO:N:vis=00	!	!	!	!	!	!
0.r	.	8B/L	8f#/	8dd#X\	4b\	nos
.	.	8B/	4dd#X\	4ff#\	.	.
.	.	8B/	.	.	4r	.
.	.	8B/	8ff#\	8dd#X\	.	.
.	.	8B/	8ff#\L	8aa\L	4r	.
.	.	8B/J	16ee\L	16gg#\L	.	.
.	.	.	16dd#X\JJ	16ff#\JJ	.	.
=59	=59	=59	=59	=59	=59	=59
.	.	4e\	8b/	8gg#\	4r	.
.	.	.	4g#/	4b\	.	.
.	.	4r	.	.	4ee\	li-
.	.	.	4a/	4cc#\	.	.
.	.	4r	.	.	4ee\	-be-
.	.	.	16g#/LL	16b\LL	.	.
.	.	.	16f#/JJ	16a\JJ	.	.
=60	=60	=60	=60	=60	=60	=60
!	!	!	!	!LO:TX:a:t=P:problem=pominięty fragment	!	!
.	.	4e\	8r	2.ryy	2ee\	-ra
.	.	.	4g#/	.	.	.
.	.	4r	.	.	.	.
.	.	.	4a/	.	.	.
.	.	4r	.	.	4ee\	nos
.	.	.	16g#/LL	.	.	.
.	.	.	16f#/JJ	.	.	.
=61	=61	=61	=61	=61	=61	=61
.	.	4e\	4g#/	4b\	4r	.
.	.	4ee\	4ee\	4ee\	4ee\	li-
.	.	4b`>\	4b`>\	4b`>\	4b\	-be-
=62	=62	=62	=62	=62	=62	=62
!LO:N:vis=0	!	!	!	!	!	!
1.r	.	4cc#`>\	4cc#`>\	4cc#`>\	(>4cc#\	-ra-
.	.	4b`>\	4b`>\	4b`>\	4b\	.
.	.	4a`\	4a`>\	4a`>\	4a\)	.
=63	=63	=63	=63	=63	=63	=63
.	.	4g#`>\	4g#`>/	4g#`</	(>4g#\	.
.	.	4a`>\	4a`>/	4a`</	4a\	.
.	.	4b`>\	4b`>/	4b`</	4b\)	.
!	!	!	!LO:LB:g=original	!	!	!
=64	=64	=64	=64	=64	=64	=64
8E\L	.	8e\L	8e/	8e/	4e/	-nos
8E\	.	8g#\	4g#/	4g#/	.	.
8E\	.	8g#\	.	.	4r	.
8E\	.	8g#\	4b/	4b/	.	.
8G#\	.	8e\	.	.	4r	.
8G#\J	.	8e\J	8ee\	8ee\	.	.
=65	=65	=65	=65	=65	=65	=65
!	!	!	!	!	!LO:N:vis=00	!
8B\L	.	8f#\L	8dd#X\L	8dd#X\L	0.r	.
8B\	.	8f#\	8b\	8b\	.	.
8B\	.	8f#\	8dd#\	8dd#\	.	.
8B\	.	8f#\	8ff#\J	8ff#\J	.	.
8D#X\	.	8f#\	8aa\L	8aa\L	.	.
8D#\J	.	8f#\J	16gg#\L	16gg#\L	.	.
.	.	.	16ff#\JJ	16ff#\JJ	.	.
=66	=66	=66	=66	=66	=66	=66
8E\L	.	8B/L	8gg#\L	8gg#\L	.	.
8E\	.	8B/	16ff#\L	16ff#\L	.	.
.	.	.	16ee\JJ	16ee\JJ	.	.
8BB\	.	8e/	4.ff#M>\	4.ff#M>\	.	.
8BB\	.	8e/	.	.	.	.
8BB\	.	8f#/	.	.	.	.
!	!	!	!LO:SIC:s=8ff#:v	!LO:SIC:s=8ff#:v	!	!
8BB\J	.	8f#/J	8ee\	8ee\	.	.
!	!	!LO:LB:g=original	!	!	!	!
=67	=67	=67	=67	=67	=67	=67
4E\	.	8g#\	8ee\	[>2.ee\	.	.
.	.	4g#\	4b\	.	.	.
4r	.	.	.	.	.	.
.	.	4a\	4cc#\	.	.	.
4r	.	.	.	.	.	.
.	.	8g#\	8b\	.	.	.
=68	=68	=68	=68	=68	=68	=68
4E\	.	8r	8r	2.ee\]	.	.
.	.	8g#\	4b\	.	.	.
4r	.	8g#\	.	.	.	.
.	.	4a\	4cc#\	.	.	.
4r	.	.	.	.	.	.
.	.	8g#\	8b\	.	.	.
!	!	!	!	!LO:LB:g=original	!	!
=69	=69	=69	=69	=69	=69	=69
!	!	!	!	!	!LO:N:vis=0	!
4F#\	.	8e\L	4aa\	4aa\	1.r	.
.	.	8e\	.	.	.	.
.	.	.	.	8qqbb/	.	.
4E\	.	8B\	4gg#\	4gg#\	.	.
.	.	8B\	.	.	.	.
.	.	.	.	8qqaa/	.	.
4D#X\	.	8B\	4ff#\	4ff#\	.	.
.	.	8B\J	.	.	.	.
.	.	.	.	8qqgg#/	.	.
*	*	*	*tuplet	*	*	*
=70	=70	=70	=70	=70	=70	=70
!LO:TX:a:t=P:problem=mixed beam	!	!	!LO:TUP:a:problem=klamra łukowa	!	!	!
8E\L	.	8B\L	12gg#\L	12gg#\L	.	.
.	.	.	12ff#\	12ff#\	.	.
8E\	.	8B\	.	.	.	.
.	.	.	12ee\J	12ee\J	.	.
8B\	.	8e\	4.ff#\	4.ff#M>\	.	.
8B\	.	8e\	.	.	.	.
!LO:N:vis=8	!	!	!	!	!	!
4BB/J	.	8f#\	.	.	.	.
.	.	8f#\J	8ee\	8ee\	.	.
=71	=71	=71	=71	=71	=71	=71
!	!	!	!LO:TX:a:t=P:problem=mixed beam	!	!	!
4E\	.	8g#\L	8ee\L	8ee\L	(<8e/	li-
.	.	8e\	8g#/	8b\	4g#/	.
4r	.	8e\	8g#/	8b\	.	.
!	!	!	!	!	!LO:TX:a:t=P:problem=w źródle błędne podłożenie tekstu	!
.	.	8e\	8g#/	8b\	8b/)	-be-
4r	.	8e\	8g#/	8b\	8b\	-ra
.	.	8e\J	8g#/J	8b\J	8ee\	nos
!LO:LB:g=original	!	!	!LO:LB:g=original	!LO:LB:g=original	!	!
=72	=72	=72	=72	=72	=72	=72
!	!	!	!LO:TX:a:t=P:problem=mixed beam	!	!	!
4BB/	.	8d#X\L	8f#/L	8b\L	2dd#X\	nos
.	.	8d#\	8ff#\	8aa\	.	.
4r	.	8B\	8ff#\	8aa\	.	.
.	.	8B\	8ff#\J	8aa\J	.	.
4r	.	8e\	8b/L	8gg#\L	4r	.
.	.	8e\J	16a/L	16ff#\L	.	.
.	.	.	16g#/JJ	16ee\JJ	.	.
=73	=73	=73	=73	=73	=73	=73
4BB/	.	8d#X\L	8r	8r	8b\L	li-
.	.	8B\	8dd#X\L	8ff#\L	8dd#X\J	.
4r	.	8B\	8dd#\	8ff#\	8dd#\L	-be-
.	.	8B\	8dd#\	8ff#\	8ff#\J	.
4r	.	8B\	8dd#\	8ff#\	8ff#\	-ra
.	.	8B\J	8dd#\J	8ff#\J	8a\	nos
=74	=74	=74	=74	=74	=74	=74
4E\	.	8f#\L	8r	8r	(>4a\	ſem-
.	.	8g#\	8b\L	8ee\L	.	.
4r	.	8g#\	8b\	8ee\	8g#\L)	.
!	!	!	!	!	!LO:SIC:s=8b:v	!
.	.	8g#\	8b\	8ee\	8a\J	.
4r	.	8e\	8g#\	8ee\	4b\	-per
.	.	8e\J	8g#\J	8ee\J	.	.
=75	=75	=75	=75	=75	=75	=75
!LO:N:vis=00	!	!	!	!	!	!
0.r	.	8a\L	8r	8r	(>4cc#\	vir-
.	.	8a\	8cc#\	8ee\L	.	.
.	.	8g#\	8r	8r	4b\)	.
.	.	8g#\	8b\	8ee\	.	.
.	.	8f#\	8r	8r	4a\	-go
.	.	8f#\J	8dd#X\	8ff#\J	.	.
!	!	!LO:LB:g=original	!	!	!	!
=76	=76	=76	=76	=76	=76	=76
.	.	8e\L	8b\L	8ee\L	(>4.g#\	vir-
.	.	8e\	8b\	8ee\	.	.
.	.	8g#\	8b\	8ee\	.	.
.	.	8g#\	8b\	8ee\	8b\)	.
.	.	8a\	8cc#\	8ff#\	8a\L	go
!	!	!	!	!	!LO:SIC:s=8f#:v	!
.	.	8a\J	8cc#\J	8ff#\J	8g#\J	.
=77	=77	=77	=77	=77	=77	=77
.	.	4b\	8f#/	8dd#X\	4f#/	nos
.	.	.	4dd#X\	4ff#\	.	.
.	.	4r	.	.	4b\	sem-
.	.	.	16ff#\LL	16aa\LL	.	.
.	.	.	16ee\JJ	16gg#\JJ	.	.
.	.	4r	8ff#\L	8aa\L	4b\	-per
.	.	.	8dd#X\J	8ff#\J	.	.
!	!	!	!	!LO:LB:g=original	!	!
=78	=78	=78	=78	=78	=78	=78
.	.	4e\	8b\	8ee\	2b\	vir-
.	.	.	4ee\	4gg#\	.	.
.	.	4r	.	.	.	.
.	.	.	16gg#\LL	16bb\LL	.	.
.	.	.	16ff#\JJ	16aa\JJ	.	.
.	.	4r	8gg#\L	8bb\L	4b\	-go
.	.	.	8ee\J	8gg#\J	.	.
!	!	!	!LO:LB:g=original	!	!	!
=79	=79	=79	=79	=79	=79	=79
!LO:N:vis=00	!	!	!	!	!	!
0.r	.	8e\L	8ff#\L	8ff#\L	4r	.
.	.	8e\	8ff#\	8ff#\	.	.
.	.	8e\	8b\	8gg#\	4ee\	li-
.	.	8e\	8b\	8gg#\	.	.
.	.	8d#X\	8b\	8ff#\	4b\	-be-
.	.	8d#\J	8b\J	8ff#\J	.	.
!	!	!	!	!	!LO:LB:g=original	!
=80	=80	=80	=80	=80	=80	=80
.	.	8e\L	8b\	8gg#\	4g#/	-ra
.	.	8e\	4cc#\	4ee\	.	.
.	.	8e\	.	.	4e/	nos
.	.	8e\	16b\LL	16ddn\LL	.	.
.	.	.	16a\JJ	16cc#\JJ	.	.
.	.	8e\	8b/L	8dd\L	4r	.
.	.	8e\J	8g#/J	8b\J	.	.
=81	=81	=81	=81	=81	=81	=81
!	!	!	!LO:TX:a:t=P:problem=mixed beam	!	!	!
.	.	8a\L	8e/L	8cc#\L	4r	.
.	.	8a\	8e/	8cc#\	.	.
.	.	8a\	8dd\	8ff#\	4ff#\	li-
.	.	8a\	8dd\	8ff#\	.	.
.	.	8a\	8cc#\	8ee\	4ee\	-be-
.	.	8a\J	8cc#\J	8ee\J	.	.
=82	=82	=82	=82	=82	=82	=82
.	.	8b\L	8f#/L	8dd\L	4.dd\	-ra
.	.	8b\	8f#/	8dd\	.	.
.	.	8e\	8g#/	8dd\	.	.
!	!	!	!	!	!LO:SIC:s=8b:v	!
.	.	8e\	8g#/	8dd\	8cc#\	nos
.	.	8g#\	8e/	8dd\	4b\	ſem-
.	.	8g#\J	8e/J	8dd\J	.	.
=83	=83	=83	=83	=83	=83	=83
!LO:N:vis=00	!	!	!	!	!	!
0.r	.	8a\L	8e/L	8cc#\L	4cc#\	-per
.	.	8a\	16cc#/L	16aa\L	.	.
.	.	.	16b/JJ	16gg#\JJ	.	.
.	.	8a\	8cc#/L	8aa\L	4r	.
.	.	8a\	8a/	8cc#\J	.	.
.	.	8b\	8f#/	8dd\L	4r	.
.	.	8e\J	8g#/J	8b\J	.	.
=84	=84	=84	=84	=84	=84	=84
.	.	8a\L	8a\L	8cc#\L	4r	.
.	.	8a\	16ee\L	16cc#\L	.	.
.	.	.	16dd\JJ	16b\JJ	.	.
.	.	8A\	8ee\L	8cc#\L	4ee\	ſem-
.	.	8A\	8cc#\	8a\	.	.
.	.	8A\	8ggn\	8ee\	4ee\	-per
.	.	8A\J	8ee\J	8cc#\J	.	.
!	!	!LO:LB:g=original	!	!	!	!
=85	=85	=85	=85	=85	=85	=85
.	.	8d/L	8a/L	8ff#\L	(>4ff#\	vir-
.	.	8d/	8a/	8ff#\	.	.
.	.	8c#/	8a/	8ee\	4ee\)	.
.	.	8c#/	8a/	8ee\	.	.
.	.	8B/	8g#/	8dd\	4dd\	-go
.	.	8B/J	8g#/J	8dd\J	.	.
=86	=86	=86	=86	=86	=86	=86
!	!	!	!LO:TX:a:t=P:problem=mixed beam	!	!	!
.	.	8A/L	8e/L	8cc#\L	16cc#\LL	glo-
.	.	.	.	.	16dd\J	.
.	.	8A/	8cc#\	8aa\	8ee\J	.
.	.	8A/	8cc#\	8aa\	16cc#\LL	-ri-
.	.	.	.	.	16b\J	.
.	.	8A/	8cc#\	8aa\J	8a\J	.
!	!	!	!	!LO:LB:g=original	!	!
.	.	8e/	8b\	8.gg#\L	16dd\LL	-o-
.	.	.	.	.	16cc#\J	.
.	.	8e/J	8b\J	.	8b\J	.
.	.	.	.	32ff#\LL	.	.
.	.	.	.	32gg#\JJJ	.	.
!	!	!	!LO:LB:g=original	!	!LO:LB:g=original	!
=87	=87	=87	=87	=87	=87	=87
!LO:N:vis=0	!	!	!	!	!	!
1.r	.	8A/L	8cc#\	8aa\	16a\LL	-o-
.	.	.	.	.	16b\J	.
.	.	8A/	4cc#\	4ee\	8cc#\J	.
.	.	8c#/	.	.	16cc#\LL	.
.	.	.	.	.	16b\J	.
.	.	8c#/	8cc#\	8ee\	8a\J	.
.	.	8e/	8b\L	16dd\LL	16b\LL	.
.	.	.	.	16cc#\J	16a\J	.
.	.	8e/J	8dd\J	8b\J	8g#\J	-ſa
=88	=88	=88	=88	=88	=88	=88
!	!	!	!LO:TX:a:t=P:problem=mixed beam	!	!	!
.	.	8a\L	8cc#\L	8r	8r	.
!	!	!	!	!	!LO:SIC:s=8cc#:v	!
.	.	8c#\J	8c#/J	8c#/	8dd\	et
!	!	!	!	!	!LO:SIC:s=8.dd:v	!
.	.	4d\	4d/	4d/	8.cc#\	be-
.	.	.	.	.	16cc#\	-ne-
.	.	4e\	4e/	4e/	4b\	-dic-
=89	=89	=89	=89	=89	=89	=89
8A\L	.	8A/L	8a\	8a\	4a\	-ta
8A\	.	8c#/	4cc#\	4cc#\	.	.
8A\	.	8c#/	.	.	4r	.
8A\	.	8c#/	4ee\	4ee\	.	.
8A\	.	8c#/	.	.	4r	.
8A\J	.	8c#/J	8aa\	8aa\	.	.
=90	=90	=90	=90	=90	=90;>;<	=90
!	!	!	!	!	!LO:TX:a:t=P:problem=w źródle 2 fermaty nad pauzami tworzące znak 'Signum'; końcówka Da Capo; zakodowane na kresce taktowej	!
.	.	.	8qqaa/	8qqaa/	.	.
!	!	!	!	!	!LO:N:vis=00	!
8E\L	.	8B/L	8gg#\L	8gg#\L	0.r	.
8E\	.	8B/	8ff#\J	8ff#\J	.	.
8C#\	.	8A/	4.ee\	4.ee\	.	.
8C#\	.	8A/	.	.	.	.
8C#\	.	8A/	.	.	.	.
8C#\J	.	8A/J	8a/	8a/	.	.
=91	=91	=91	=91	=91	=91	=91
8D\L	.	8A/L	8ff#\	8ff#\	.	.
8D\	.	8A/	4ff#\	4ff#\	.	.
8D\	.	8A/	.	.	.	.
8D\	.	8A/	8aa\L	8aa\L	.	.
8D\	.	8A/	8gg#\	8gg#\	.	.
8D\J	.	8A/J	8ff#\J	8ff#\J	.	.
=92	=92	=92	=92	=92	=92	=92
!	!	!LO:TX:a:t=P:problem=mixed beam	!	!	!	!
8C#/L	.	8A/L	8ee\	8ee\	.	.
8C#/	.	8A/	4a/	4a/	.	.
8C#/	.	8A/	.	.	.	.
8BB/	.	8f#\	8dd\L	8dd\L	.	.
8E/	.	8e\	8cc#\	8cc#\	.	.
8E/J	.	8d\J	8b\J	8b\J	.	.
!	!	!LO:LB:g=original	!	!	!	!
=93	=93	=93	=93	=93	=93	=93
!	!	!	!LO:TUP:a:problem=klamra łukowa	!	!	!
8A\L	.	8e\L	12cc#\L	12cc#\L	.	.
.	.	.	12b\	12b\	.	.
8A\	.	8e\	.	.	.	.
.	.	.	12a\J	12a\J	.	.
8F#\	.	8a\	2dd#Xm>\	2dd#Xm>\	.	.
8F#\	.	8a\	.	.	.	.
8F#\	.	8a\	.	.	.	.
8F#\J	.	8a\J	.	.	.	.
!LO:LB:g=original	!	!	!	!	!	!
=94	=94	=94	=94	=94	=94	=94
!	!	!	!	!	!LO:N:vis=00	!
8G#\L	.	8b\L	4.ee\	4.ee\	0.r	.
8E\	.	8g#\	.	.	.	.
8E\	.	8e\	.	.	.	.
8E\	.	8f#\	8aa\L	8aa\L	.	.
8E\	.	8e\	8gg#\	8gg#\	.	.
8E\J	.	8d\J	8ff#\J	8ff#\J	.	.
=95	=95	=95	=95	=95	=95	=95
8E\L	.	8c#\L	4.ee\	4.ee\	.	.
8E\	.	8c#\	.	.	.	.
8E\	.	8c#\	.	.	.	.
8E\	.	8d\	8ff#\L	8ff#\L	.	.
8E\	.	8c#\	8ee\	8ee\	.	.
8E\J	.	8B\J	8dd\J	8dd\J	.	.
!	!	!	!LO:LB:g=original	!LO:LB:g=original	!	!
=96	=96	=96	=96	=96	=96	=96
*	*	*	*Xtuplet	*	*	*
8A\L	.	8e\L	24cc#\LL	24cc#\LL	.	.
.	.	.	24b\	24b\	.	.
.	.	.	24a\JJ	24a\JJ	.	.
!	!	!	!LO:SIC:s=16ee:v	!	!	!
8A\	.	8e\	16dd\LL	16ee\LL	.	.
!	!	!	!LO:SIC:s=16a:v	!	!	!
.	.	.	16b\JJ	16a\JJ	.	.
8E\	.	8d\	4.g#/	4.b/	.	.
8E\	.	8d\	.	.	.	.
8E\	.	8e\	.	.	.	.
8E\J	.	8e\J	8g#/	8b/	.	.
=97	=97	=97	=97	=97	=97	=97
4AA/	.	8c#\	8e/	2.a/	.	.
.	.	4c#\	4e/	.	.	.
4r	.	.	.	.	.	.
.	.	4d\	4f#/	.	.	.
4r	.	.	.	.	.	.
.	.	8c#\	8e/	.	.	.
=98	=98	=98	=98	=98	=98	=98
!	!	!	!	!	!LO:N:vis=00	!
4AA/	.	8r	8r	2.a/	0.r	.
.	.	4c#\	4e/	.	.	.
4r	.	.	.	.	.	.
.	.	4d\	4f#/	.	.	.
4r	.	.	.	.	.	.
.	.	8c#\	8e/	.	.	.
=99	=99	=99	=99	=99	=99	=99
4B\	.	8f#\L	4dd\	4dd\	.	.
.	.	8f#\	.	.	.	.
4A\	.	8e\	4cc#\	4cc#\	.	.
.	.	8e\	.	.	.	.
4G#\	.	8e\	4b\	4b\	.	.
.	.	8e\J	.	.	.	.
=100	=100	=100	=100	=100	=100	=100
8A\L	.	8e\L	24cc#\LL	24cc#\LL	.	.
.	.	.	24b\	24b\	.	.
.	.	.	24a\JJ	24a\JJ	.	.
!	!	!	!LO:TX:a:t=P:problem=mixed beam	!LO:TX:a:t=P:problem=mixed beam	!	!
8A\	.	8e\	16aa\LL	16aa\LL	.	.
.	.	.	16a/JJ	16a/JJ	.	.
8E\	.	8a\	4.bM>\	4.bM>\	.	.
8E\	.	8a\	.	.	.	.
8E\	.	8g#\	.	.	.	.
8E\J	.	8g#\J	8b\	8b\	.	.
*	*	*	*tuplet	*tuplet	*	*
=101	=101	=101	=101	=101	=101	=101
8A\L	.	8a\L	8a/L	8a/L	.	.
8F#\J	.	8f#\J	8f#/J	8f#/J	.	.
4D\	.	4d\	4d/	4d/	.	.
4E\	.	4e\	4e/	4e/	.	.
!	!	!LO:LB:g=original	!	!	!	!
=102	=102	=102	=102	=102	=102	=102
!LO:TX:a:t=P:problem=w źródle 2 fermaty tworzące znak 'Signum'; końcówka Da Capo	!	!LO:TX:a:t=P:problem=w źródle 2 fermaty tworzące znak 'Signum'; końcówka Da Capo	!LO:TX:a:t=P:problem=w źródle 1 fermata, najprawdopodobniej tworząca znak 'Signum'; końcówka Da Capo	!LO:TX:a:t=P:problem=w źródle 2 fermaty tworzące znak 'Signum'; końcówka Da Capo	!	!
!	!	!LO:N:vis=2	!	!	!	!
2.AA;>;</	.	2.A;>;</	2.A;>/	2.A;>;</	2.r	.
!	!	!	!	!	!LO:SIC:s=Volti:v:t='Volti' po kresce taktowej tuż przed łamaniem strony	!
!LO:PB:g=original	!	!	!	!	!LO:PB:g=original	!
=103	=103	=103||	=103||	=103	=103	=103
*>B	*	*>B	*>B	*>B	*>B	*
!LO:N:vis=00	!	!	!	!	!	!
0.r	.	8A/L	8r	8r	(>4a\	ſem-
.	.	8A/	8cc#\L	8ee\L	.	.
.	.	8A/	8r	8r	4cc#\)	.
.	.	8A/	8a\	8cc#\	.	.
.	.	8c#/	8r	8r	4ee\	-per
.	.	8c#/J	8cc#\J	8ee\J	.	.
=104	=104	=104	=104	=104	=104	=104
.	.	4A/	8r	8r	4a\	vir-
!	!	!	!	!LO:SIC:s=8ggn:v	!	!
.	.	.	8ee\L	8gg#\L	.	.
.	.	4r	8r	8r	2ggn\	-go
.	.	.	8cc#\	8ee\	.	.
.	.	4r	8r	8r	.	.
!	!	!	!	!LO:SIC:s=8ggn:v	!	!
.	.	.	8ee\J	8gg#\J	.	.
!	!	!	!LO:LB:g=original	!	!	!
=105	=105	=105	=105	=105	=105	=105
.	.	8A/L	8r	8r	(>4a\	glo-
.	.	8A/	8ggn\L	8ee\L	.	.
.	.	8A/	8r	8r	4cc#\)	.
.	.	8A/	8ee\	8cc#\	.	.
.	.	8c#/	8r	8r	4ee\	ri-
.	.	8c#/J	8gg\J	8ee\J	.	.
!	!	!	!	!LO:LB:g=original	!	!
=106	=106	=106	=106	=106	=106	=106
.	.	4d\	8r	8r	4a\	-o-
.	.	.	8aa\L	8ff#\L	.	.
.	.	4d\	8r	8r	2ff#\	-ſa
.	.	.	8ff#\	8dd\	.	.
.	.	4d\	8r	8r	.	.
.	.	.	8aa\J	8ff#\J	.	.
=107	=107	=107	=107	=107	=107	=107
!LO:N:vis=00	!	!	!	!	!	!
0.r	.	4A/	8r	8r	2.ggn\	et
.	.	.	8cc#\L	8ee\L	.	.
.	.	4A/	8r	8r	.	.
.	.	.	8a\	8cc#\	.	.
.	.	4A/	8r	8r	.	.
.	.	.	8cc#\J	8ee\J	.	.
=108	=108	=108	=108	=108	=108	=108
.	.	4d\	8r	8r	2.ff#\	be-
.	.	.	8f#/L	8dd\L	.	.
.	.	4d\	8r	8r	.	.
.	.	.	8a/	8ff#\	.	.
.	.	4d\	8r	8r	.	.
.	.	.	8f#/J	8dd\J	.	.
=109	=109	=109	=109	=109	=109	=109
.	.	4A/	8cc#\L	8ee\L	8ee\	-ne-
.	.	.	8cc#\	8ee\	8a\	-dic-
.	.	4A/	8cc#\	8ee\	8cc#\	-ta
.	.	.	8cc#\	8ee\	8ee\	et
.	.	4d\	8a\	8ff#\	8ff#\	be-
.	.	.	8a\J	8ff#\J	8dd\	-ne-
=110	=110	=110	=110	=110	=110	=110
.	.	4A/	8cc#\	8ee\	8ee\L	-di-
!	!	!	!	!	!LO:SIC:s=8ee:v	!
.	.	.	4ee\	4ggn\	8dd\	.
!	!	!	!	!	!LO:SIC:s=8dd:v	!
.	.	4A/	.	.	8cc#\	.
!	!	!	!	!	!LO:SIC:s=8cc#:v	!
.	.	.	4cc#\	4ee\	8b\	.
!	!	!	!	!	!LO:SIC:s=8b:v	!
.	.	4c#/	.	.	8a\	.
!	!	!	!	!	!LO:SIC:s=8a:v	!
.	.	.	8a\	8cc#\	8gn\J	.
!	!	!LO:LB:g=original	!	!	!	!
=111	=111	=111	=111	=111	=111	=111
!LO:N:vis=00	!	!	!	!	!	!
0.r	.	4d\	8f#/	8dd\	8f#/	.
.	.	.	4f#/	4a/	4d/	.
.	.	4d\	.	.	.	.
.	.	.	4f#/	4dd\	4f#/	.
.	.	4d\	.	.	.	.
.	.	.	8f#/	8a/	8a/	.
!	!	!	!LO:LB:g=original	!	!LO:LB:g=original	!
=112	=112	=112	=112	=112	=112	=112
.	.	4d\	8gn/	8b/	4b\	.
.	.	.	4f#/	4a/	.	.
.	.	4d\	.	.	4a\	-cta
.	.	.	16ff#\LL	16aa\LL	.	.
!	!	!	!	!LO:SIC:s=16ggn:v	!	!
.	.	.	16ee\JJ	16gg#\JJ	.	.
.	.	4d\	8ff#\L	8aa\L	4r	.
.	.	.	8dd\J	8ff#\J	.	.
=113	=113	=113	=113	=113	=113	=113
.	.	4d\	8gn/	8b/	2.r	.
.	.	.	4f#/	4a/	.	.
.	.	4A/	.	.	.	.
.	.	.	16ee\LL	16ggn\LL	.	.
.	.	.	16dd\JJ	16ff#\JJ	.	.
!	!	!	!	!LO:LB:g=original	!	!
.	.	4A/	8ee\L	8ggn\L	.	.
.	.	.	8cc#\J	8ee\J	.	.
=114	=114	=114	=114	=114	=114	=114
.	.	8d\L	16a/LL	16ff#\LL	4r	.
!	!	!	!LO:SIC:s=16gn:v	!	!	!
.	.	.	16g#/	16ee\	.	.
.	.	8A\	16f#/	16dd\	.	.
.	.	.	16e/JJ	16cc#\JJ	.	.
.	.	8d\	8f#/L	8dd\L	4r	.
.	.	8d\	8f#/	8a\	.	.
.	.	8d\	8f#/	8a\	4a\	et
.	.	8d\J	8f#/J	8a\J	.	.
=115	=115	=115	=115	=115	=115	=115
!LO:N:vis=00	!	!	!	!	!	!
0.r	.	8gn\L	4d/	8r	4b\	be-
.	.	8g\	.	8b\	.	.
.	.	8g\	8r	4b\	4b\	-ne-
.	.	8g\	8d/	.	.	.
.	.	8a\	4e/	8r	4cc#\	-di-
.	.	8a\J	.	8cc#\	.	.
=116	=116	=116	=116	=116	=116	=116
.	.	8b\L	8r	4dd\	4.dd\	-cta
.	.	8b\	8f#/	.	.	.
!	!	!	!LO:SIC:s=4a:v	!	!	!
.	.	8a\	4g#/	8r	.	.
.	.	8a\	.	8ee\	8ee\	et
.	.	8d\	8r	4ff#\	4ff#\	be-
.	.	8d\J	8a/	.	.	.
!	!	!LO:LB:g=original	!LO:LB:g=original	!	!	!
=117	=117	=117	=117	=117	=117	=117
!	!	!	!	!	!LO:SIC:s=4ggn:v	!
.	.	4Gn/	4d/	4b/	4gg#\	-ne-
.	.	2A/	2A/	2a/	2ee\	-di-
*	*	*	*	*	*tuplet	*
=118	=118	=118	=118	=118	=118	=118
!	!	!LO:TX:a:t=P:problem=w źródle końcowe kreski taktowe ozdobione	!LO:TX:a:t=P:problem=w źródle końcowe kreski taktowe ozdobione	!	!	!
.	.	2.d\	2.d/	2.d/	2.dd\	-cta
*	*	*2\left	*2\left	*2\left	*2\left	*
!	!	!	!	!	!LO:SIC:o=usque:v:t=w źródle napis ten znajduje się pod 'Da Capo' przed 'ad Signum'	!
!	!	!	!	!	!LO:SIC:o=;>;<:v:t=w źródle dwie fermaty oznaczające miejsce do którego dąży 'Da Capo'	!
!LO:TX:a:Bi:t=Da Capo ad Signum Finis	!	!LO:TX:a:Bi:t=Da Capo ad Signum Finis	!LO:TX:a:Bi:t=Da Capo ad Signum Finis	!LO:TX:a:Bi:t=Da Capo ad Signum\nFinis	!LO:TX:a:Bi:t=Da Capo\n ad Signum	!
==	==	==	==	==	==	==
*-	*-	*-	*-	*-	*-	*-
!!!system-decoration: s1[(s2,s3,s4)]s5
!!!RDF**kern: > = above
!!!RDF**kern: < = below
!!!EED: Wojciech Jakubiak-Danek
!!!EEV: 2020-10-08
!!!ENC: Krzysztof Stępień
!!!END: 2020-05-20
!!!YEC: Copyright 2022 Narodowy Instytut Fryderyka Chopina (https://polishscores.org)
!!!YEM: Licence CC BY 4.0 (https://creativecommons.org/licenses/by/4.0)
